dist/img/stack/stack-1.svg

<svg width="110" height="110" viewBox="0 0 110 110" fill="none" xmlns="http://www.w3.org/2000/svg">
<path fill-rule="evenodd" clip-rule="evenodd" d="M60.9832 19C60.4554 19 59.9652 19.1136 59.5128 19.265C60.4742 19.9085 61.0021 20.7602 61.266 21.7254C61.2849 21.8579 61.3226 21.9526 61.3415 22.085C61.3604 22.1986 61.3791 22.3122 61.3791 22.4257C61.4546 24.0913 60.9455 24.2994 60.5873 25.2836C60.0406 26.5517 60.1914 27.9144 60.8513 29.0122C60.9078 29.1446 60.9832 29.2961 61.0775 29.4285C60.3611 24.6401 64.339 23.9209 65.0742 22.4257C65.1308 21.1198 64.0562 20.2492 63.2078 19.6435C62.3972 19.1514 61.6619 19 60.9832 19ZM66.9783 20.0788C66.9029 20.5141 66.9594 20.4006 66.9406 20.6277C66.9217 20.7791 66.9217 20.9684 66.9029 21.1198C66.8653 21.2712 66.8275 21.4226 66.771 21.574C66.7333 21.7254 66.6767 21.8768 66.6202 22.0283C66.5447 22.1797 66.4882 22.3122 66.4128 22.4636C66.3562 22.5393 66.3185 22.615 66.262 22.6907C66.2243 22.7475 66.1865 22.8042 66.1488 22.861C66.0546 22.9935 65.9603 23.126 65.8661 23.2396C65.7529 23.3531 65.6587 23.4856 65.5267 23.5802V23.5992C65.4136 23.6938 65.3005 23.8074 65.1685 23.902C64.7726 24.2048 64.3202 24.432 63.9054 24.7159C63.7735 24.8105 63.6415 24.8862 63.5284 24.9998C63.3964 25.0944 63.2833 25.189 63.1702 25.3026C63.0382 25.4161 62.9439 25.5297 62.8308 25.6622C62.7366 25.7758 62.6235 25.9082 62.548 26.0407C62.4538 26.1732 62.3595 26.3057 62.2841 26.4382C62.2087 26.5896 62.1521 26.7221 62.0767 26.8735C62.0202 27.0249 61.9636 27.1574 61.9259 27.3088C61.8694 27.4791 61.8317 27.6305 61.7939 27.782C61.7751 27.8577 61.7751 27.9523 61.7563 28.028C61.7374 28.1037 61.7374 28.1794 61.7186 28.2551C61.7186 28.4065 61.6997 28.5769 61.6997 28.7283C61.6997 28.8419 61.6997 28.9554 61.7186 29.069C61.7186 29.2204 61.7375 29.3718 61.7752 29.5421C61.794 29.6935 61.8317 29.845 61.8694 29.9964C61.926 30.1478 61.9637 30.2992 62.0202 30.4506C62.0579 30.5452 62.1145 30.6399 62.1522 30.7156L57.8162 29.0311C57.0809 28.8229 56.3645 28.6337 55.6293 28.4633C55.2334 28.3687 54.8375 28.2741 54.4416 28.1794C53.3104 27.9523 52.1605 27.782 51.0105 27.6684C50.9728 27.6684 50.9539 27.6495 50.9162 27.6495C49.7851 27.5359 48.6728 27.4791 47.5416 27.4791C46.7121 27.4791 45.8826 27.5169 45.072 27.5737C43.922 27.6495 42.772 27.8009 41.622 27.9901C41.3392 28.028 41.0564 28.0848 40.7736 28.1416C40.1892 28.2551 39.6236 28.3876 39.0769 28.5201C38.7941 28.5958 38.5113 28.6715 38.2285 28.7472C37.9458 28.8608 37.6818 28.9932 37.4179 29.1068C37.2105 29.2014 37.0031 29.2961 36.7958 29.3907C36.7581 29.4097 36.7203 29.4097 36.7015 29.4285C36.513 29.5232 36.3433 29.5989 36.1737 29.6935C36.1171 29.7125 36.0794 29.7313 36.0417 29.7503C35.8343 29.8449 35.6269 29.9585 35.4573 30.0531C35.3253 30.1099 35.1933 30.1856 35.0802 30.2424C35.0237 30.2802 34.9482 30.3181 34.9105 30.337C34.7409 30.4316 34.5712 30.5263 34.4204 30.6209C34.2507 30.7155 34.0999 30.8102 33.9679 30.9048C33.836 30.9994 33.704 31.0751 33.5909 31.1698C33.572 31.1887 33.5532 31.1887 33.5343 31.2076C33.4212 31.2833 33.2892 31.3779 33.1761 31.4726C33.1761 31.4726 33.1572 31.4915 33.1384 31.5104C33.0442 31.5861 32.9499 31.6618 32.8557 31.7375C32.818 31.7565 32.7802 31.7943 32.7425 31.8132C32.6483 31.889 32.554 31.9836 32.4598 32.0593C32.4409 32.0971 32.4032 32.1161 32.3843 32.135C32.2712 32.2486 32.1581 32.3432 32.045 32.4568C32.0261 32.4568 32.0261 32.4757 32.0073 32.4946C31.8942 32.5892 31.7811 32.7028 31.668 32.8164C31.6491 32.8353 31.6491 32.8542 31.6303 32.8542C31.536 32.9488 31.4418 33.0434 31.3475 33.157C31.3098 33.1948 31.2532 33.2327 31.2155 33.2706C31.1213 33.3841 31.0082 33.4977 30.895 33.6112C30.8762 33.6491 30.8385 33.668 30.8196 33.7059C30.6688 33.8573 30.5368 34.0087 30.386 34.1601C30.3671 34.1791 30.3483 34.1979 30.3294 34.2169C30.0278 34.5386 29.7073 34.8604 29.368 35.1443C29.0286 35.4471 28.6704 35.731 28.3122 35.9771C27.9352 36.242 27.577 36.4692 27.1811 36.6963C26.8041 36.9045 26.4081 37.0937 25.9934 37.2641C25.5975 37.4344 25.1827 37.5858 24.768 37.7183C23.9762 37.8886 23.1655 38.2104 22.468 38.2672C22.3172 38.2672 22.1475 38.305 21.9967 38.324C21.827 38.3618 21.6762 38.3997 21.5254 38.4375C21.3746 38.4943 21.2238 38.5511 21.0729 38.6079C20.9221 38.6646 20.7713 38.7403 20.6205 38.8161C20.4885 38.9107 20.3377 38.9864 20.2057 39.081C20.0738 39.1757 19.9418 39.2892 19.8287 39.4028C19.6967 39.4974 19.5647 39.6299 19.4516 39.7435C19.3385 39.8759 19.2254 39.9895 19.1311 40.122C19.0369 40.2734 18.9238 40.4059 18.8484 40.5573C18.7541 40.6898 18.6598 40.8412 18.5844 40.9926C18.509 41.163 18.4336 41.3144 18.377 41.4847C18.3205 41.6361 18.2639 41.8064 18.2074 41.9768C18.1697 42.1282 18.1319 42.2796 18.1131 42.431C18.1131 42.45 18.0942 42.4688 18.0942 42.4878C18.0566 42.6582 18.0566 42.8853 18.0377 42.9988C18.0188 43.1313 18 43.2449 18 43.3774C18 43.4531 18 43.5477 18.0189 43.6234C18.0378 43.7559 18.0566 43.8695 18.0943 43.983C18.132 44.0966 18.1698 44.2101 18.2263 44.3237V44.3426C18.2828 44.4562 18.3583 44.5698 18.4337 44.6833C18.5091 44.7969 18.5845 44.9104 18.6787 45.024C18.773 45.1186 18.8861 45.2322 18.9992 45.3268C19.1123 45.4404 19.2255 45.535 19.3574 45.6297C19.8099 46.0271 19.923 46.1596 20.5074 46.4624C20.6017 46.5192 20.6959 46.5571 20.8091 46.6138C20.8279 46.6138 20.8467 46.6328 20.8656 46.6328C20.8656 46.6706 20.8656 46.6896 20.8845 46.7274C20.9034 46.8788 20.9411 47.0303 20.9788 47.1817C21.0164 47.352 21.073 47.5034 21.1296 47.6359C21.1861 47.7495 21.2239 47.863 21.2804 47.9766C21.2993 48.0144 21.3181 48.0523 21.337 48.0712C21.4124 48.2226 21.4878 48.3551 21.5632 48.4876C21.6575 48.6201 21.7517 48.7526 21.846 48.8851C21.9402 48.9986 22.0533 49.1311 22.1665 49.2447C22.2796 49.3582 22.3927 49.4529 22.5247 49.5664C22.5247 49.5664 22.5435 49.5854 22.5623 49.5854C22.6755 49.68 22.7886 49.7747 22.9017 49.8504C23.0336 49.945 23.1656 50.0207 23.3164 50.0964C23.4484 50.1721 23.5992 50.2478 23.75 50.3046C23.8632 50.3614 23.9951 50.3992 24.1271 50.4371C24.146 50.4561 24.1648 50.4561 24.2025 50.4749C24.278 50.4939 24.3722 50.5127 24.4476 50.5317C24.391 51.5537 24.3722 52.519 24.523 52.8597C24.6927 53.2382 25.5222 52.0837 26.3517 50.7588C26.2386 52.0648 26.1632 53.5978 26.3517 54.052C26.5591 54.5252 27.6902 53.0489 28.6706 51.4212C42.0369 48.3173 54.2344 57.5913 55.5163 70.6885C55.2712 68.6444 52.7639 67.5088 51.6139 67.7927C51.0483 69.1933 50.0868 70.9913 48.541 72.108C48.6729 70.8588 48.6164 69.5718 48.3524 68.3227C47.9377 70.0639 47.127 71.6916 46.0147 73.0922C44.2238 73.2247 42.4328 72.354 41.4902 71.0481C41.4147 70.9913 41.3959 70.8778 41.3393 70.8021C41.2828 70.6696 41.2262 70.5371 41.1885 70.4046C41.132 70.2721 41.0943 70.1396 41.0754 70.0072C41.0565 69.8747 41.0565 69.7422 41.0565 69.5908C41.0565 69.4961 41.0565 69.4015 41.0565 69.3069C41.0754 69.1744 41.1131 69.0419 41.1508 68.9094C41.1885 68.7769 41.2262 68.6444 41.2828 68.5119C41.3582 68.3795 41.4147 68.247 41.509 68.1145C41.8295 67.206 41.8295 66.4679 41.2451 66.0326C41.1319 65.9568 41.0188 65.9001 40.8869 65.8433C40.8114 65.8243 40.7172 65.7865 40.6418 65.7676C40.5852 65.7486 40.5475 65.7297 40.491 65.7108C40.359 65.673 40.227 65.635 40.0951 65.6161C39.9631 65.5783 39.8311 65.5594 39.6992 65.5594C39.5672 65.5404 39.4164 65.5215 39.2844 65.5215C39.1901 65.5215 39.0959 65.5405 39.0016 65.5405C38.8508 65.5405 38.7188 65.5595 38.5869 65.5973C38.4549 65.6163 38.3229 65.6351 38.191 65.673C38.059 65.7108 37.927 65.7487 37.7951 65.8055C37.6631 65.8623 37.55 65.9191 37.418 65.9758C37.3049 66.0326 37.1918 66.1083 37.0598 66.1651C32.6672 69.0419 35.2877 75.7798 38.2852 77.7292C37.1541 77.9374 36.0041 78.1835 35.6836 78.4295C35.6647 78.4485 35.6459 78.4674 35.6459 78.4674C36.4566 78.9594 37.3049 79.3758 38.191 79.7354C39.3975 80.1329 40.6795 80.4925 41.2451 80.6439V80.6629C42.8098 80.9846 44.3934 81.0982 45.9959 81.0035C54.3475 80.4168 61.1909 74.0386 62.4351 65.6352C62.4728 65.8055 62.5106 65.9569 62.5483 66.1272C62.6048 66.4679 62.6802 66.8275 62.7179 67.1871V67.2061C62.7556 67.3764 62.7745 67.5468 62.7934 67.6982V67.7739C62.8123 67.9443 62.831 68.1146 62.831 68.266C62.8499 68.4742 62.8687 68.6824 62.8687 68.8906V69.1934C62.8687 69.2881 62.8876 69.4016 62.8876 69.4963C62.8876 69.6098 62.8687 69.7234 62.8687 69.8369V70.1019C62.8687 70.2344 62.8498 70.3479 62.8498 70.4804C62.8498 70.5562 62.8498 70.6319 62.8309 70.7265C62.8309 70.859 62.8121 70.9915 62.8121 71.1429C62.7932 71.1996 62.7932 71.2564 62.7932 71.3132C62.7743 71.4646 62.7555 71.5971 62.7366 71.7485C62.7366 71.8053 62.7366 71.8621 62.7177 71.9189C62.6988 72.1081 62.6612 72.2785 62.6423 72.4677V72.4867V72.5057C62.6046 72.676 62.5668 72.8653 62.5292 73.0356V73.0924C62.4915 73.2627 62.4537 73.4331 62.416 73.6034C62.416 73.6224 62.3972 73.6602 62.3972 73.6791C62.3595 73.8495 62.3217 74.0198 62.2652 74.1902V74.2469C62.2087 74.4362 62.1521 74.6065 62.1144 74.7769C62.0955 74.7958 62.0955 74.8147 62.0955 74.8147C62.039 75.004 61.9824 75.1932 61.9258 75.3825C61.8504 75.5718 61.7939 75.7421 61.7185 75.9314C61.643 76.1206 61.5865 76.3099 61.5111 76.4802C61.4357 76.6695 61.3603 76.8399 61.2849 77.0291H61.266C61.1905 77.1994 61.1151 77.3887 61.0209 77.5591C61.002 77.6158 60.9832 77.6537 60.9643 77.6915C60.9454 77.7105 60.9454 77.7294 60.9266 77.7483C59.7012 80.2277 57.8914 82.4043 55.6291 84.1077C55.4783 84.2023 55.3275 84.3158 55.1767 84.4294C55.139 84.4672 55.0824 84.4862 55.0447 84.524C54.9127 84.6187 54.7808 84.7133 54.63 84.8079L54.6865 84.9215H54.7054C54.9693 84.8837 55.2333 84.8458 55.4972 84.8079H55.5161C56.0062 84.7322 56.4964 84.6376 56.9866 84.543C57.1185 84.524 57.2693 84.4862 57.4013 84.4483C57.4956 84.4293 57.571 84.4105 57.6652 84.3915C57.7972 84.3726 57.9292 84.3348 58.0611 84.3158C58.1743 84.278 58.2874 84.259 58.4005 84.2212C60.2857 83.7669 62.1144 83.1424 63.8677 82.4042C60.8701 86.5113 56.8546 89.8234 52.1603 92C54.3284 91.8486 56.4964 91.489 58.589 90.8833C66.1865 88.6311 72.5774 83.502 76.4045 76.5938C75.6315 80.9658 73.8971 85.1297 71.3332 88.7636C73.1619 87.5522 74.8397 86.1517 76.3668 84.5619C80.5897 80.133 83.361 74.5118 84.3036 68.4743C84.9446 71.4647 85.1331 74.5497 84.8503 77.5969C98.4617 58.5378 85.9815 38.7784 80.7594 33.5736C80.7405 33.5358 80.7217 33.5169 80.7217 33.479C80.7028 33.498 80.7028 33.498 80.7028 33.5168C80.7028 33.4979 80.7028 33.4979 80.6839 33.479C80.6839 33.7061 80.665 33.9332 80.6462 34.1604C80.5897 34.5957 80.5331 35.0121 80.4577 35.4284C80.3635 35.8448 80.2503 36.2612 80.1372 36.6776C80.0053 37.075 79.8545 37.4914 79.6848 37.8889C79.5151 38.2674 79.3266 38.6649 79.1192 39.0434C78.9118 39.403 78.6856 39.7816 78.4405 40.1222C78.1954 40.4818 77.9315 40.8225 77.6676 41.1443C77.3848 41.4849 77.0831 41.7878 76.7815 42.0906C76.593 42.2609 76.4233 42.4124 76.2348 42.5638C76.084 42.6962 75.952 42.8098 75.8012 42.9423C75.4618 43.2073 75.1225 43.4533 74.7455 43.6804C74.3873 43.9075 74.0102 44.1347 73.6332 44.3239C73.2373 44.5132 72.8414 44.6835 72.4455 44.8539C72.0496 45.0053 71.6348 45.1378 71.2201 45.2513C70.8053 45.3649 70.3717 45.4595 69.957 45.5352C69.5234 45.611 69.0898 45.6488 68.675 45.6866C68.3734 45.7056 68.0717 45.7245 67.7701 45.7245C67.3365 45.7245 66.9029 45.6867 66.4881 45.6487C66.0545 45.6109 65.6209 45.5541 65.2062 45.4595C64.7726 45.3837 64.3578 45.2702 63.9431 45.1377H63.9242C64.3389 45.0999 64.7537 45.062 65.1684 44.9863C65.602 44.9106 66.0168 44.816 66.4315 44.7024C66.8463 44.5888 67.261 44.4564 67.6569 44.3049C68.0717 44.1535 68.4676 43.9643 68.8446 43.775C69.2405 43.5857 69.5987 43.3775 69.9758 43.1504C70.334 42.9044 70.6922 42.6583 71.0315 42.3934C71.3709 42.1284 71.6913 41.8445 71.993 41.5417C72.3135 41.2578 72.5963 40.936 72.8791 40.6143C73.1618 40.2736 73.4258 39.9329 73.6708 39.5922C73.7085 39.5354 73.7463 39.4597 73.784 39.403C73.9725 39.1001 74.161 38.7973 74.3307 38.4945C74.5381 38.1159 74.7266 37.7374 74.8962 37.34C75.0659 36.9425 75.2167 36.545 75.3487 36.1287C75.4807 35.7312 75.5749 35.3148 75.6692 34.8984C75.7446 34.4631 75.82 34.0467 75.8577 33.6304C75.8954 33.195 75.9332 32.7597 75.9332 32.3433C75.9332 32.0405 75.9143 31.7377 75.8955 31.4349C75.8578 30.9996 75.8012 30.5832 75.7447 30.1668C75.6692 29.7315 75.575 29.3151 75.4619 28.8987C75.3299 28.5013 75.1979 28.0849 75.0471 27.6874C74.8963 27.2899 74.7078 26.8925 74.5193 26.514C74.3119 26.1354 74.1045 25.7569 73.8783 25.3973C73.6332 25.0377 73.3881 24.697 73.1242 24.3563C72.8414 24.0346 72.5586 23.7128 72.257 23.3911C72.1062 23.2397 71.9365 23.0693 71.7668 22.9179C70.9185 22.2555 70.0324 21.6309 69.1463 21.0631C69.0144 20.9874 68.9013 20.9306 68.7693 20.8738C68.1472 20.4764 67.5627 20.2681 66.9783 20.0788Z" fill="#B7B7BE"/>
</svg>

<svg width="110" height="110" viewBox="0 0 110 110" fill="none" xmlns="http://www.w3.org/2000/svg"><path fill-rule="evenodd" clip-rule="evenodd" d="M60.983 19a4.61 4.61 0 00-1.47.265c.961.643 1.49 1.495 1.753 2.46.019.133.057.228.076.36.018.114.037.227.037.34.076 1.666-.433 1.874-.792 2.859-.546 1.268-.396 2.63.264 3.728.057.133.132.284.227.416-.717-4.788 3.261-5.507 3.996-7.002.057-1.306-1.018-2.177-1.866-2.782-.81-.493-1.546-.644-2.225-.644zm5.995 1.079c-.075.435-.019.322-.037.549-.02.151-.02.34-.038.492a4.111 4.111 0 01-.132.454 4.462 4.462 0 01-.15.454c-.076.152-.133.284-.208.436-.057.075-.094.151-.151.227l-.113.17a6.58 6.58 0 01-.283.379c-.113.113-.207.246-.34.34v.02c-.112.094-.225.207-.358.302-.395.303-.848.53-1.263.814-.132.095-.264.17-.377.284a2.75 2.75 0 00-.358.303c-.132.113-.226.227-.34.36-.093.113-.206.245-.282.378-.094.132-.189.265-.264.397-.075.152-.132.284-.207.436-.057.15-.113.283-.151.435-.057.17-.094.322-.132.473-.019.076-.019.17-.038.246-.019.076-.019.151-.037.227 0 .152-.02.322-.02.473 0 .114 0 .227.02.341 0 .151.018.303.056.473.019.151.057.303.094.454.057.152.095.303.151.455.038.094.094.189.132.265l-4.336-1.685a46.548 46.548 0 00-2.187-.568l-1.187-.284a34.892 34.892 0 00-3.431-.51c-.038 0-.057-.02-.095-.02a33.563 33.563 0 00-3.374-.17c-.83 0-1.66.038-2.47.095-1.15.075-2.3.227-3.45.416-.283.038-.566.095-.848.152-.585.113-1.15.246-1.697.378l-.849.227c-.282.114-.546.246-.81.36l-.622.284c-.038.019-.076.019-.094.038-.189.094-.359.17-.528.265a.915.915 0 00-.132.056 8.295 8.295 0 00-.585.303c-.132.057-.264.133-.377.19a1.696 1.696 0 01-.17.094c-.17.095-.339.19-.49.284-.17.095-.32.19-.452.284-.132.094-.264.17-.377.265-.019.019-.038.019-.057.038-.113.075-.245.17-.358.265l-.038.037-.282.227c-.038.02-.076.057-.114.076-.094.076-.188.17-.282.246-.02.038-.057.057-.076.076-.113.114-.226.208-.339.322-.019 0-.019.019-.038.038-.113.094-.226.208-.339.321-.019.02-.019.038-.038.038-.094.095-.188.19-.282.303-.038.038-.095.076-.133.114a5.27 5.27 0 01-.32.34c-.019.038-.056.057-.075.095-.151.151-.283.303-.434.454l-.057.057a11.07 11.07 0 01-.961.927c-.34.303-.698.587-1.056.833-.377.265-.735.492-1.13.72-.378.207-.774.397-1.189.567-.395.17-.81.322-1.225.454-.792.17-1.602.492-2.3.55-.15 0-.32.037-.471.056-.17.038-.32.076-.472.114l-.452.17c-.15.057-.302.132-.453.208-.132.095-.282.17-.414.265a3.086 3.086 0 00-.377.322 3.221 3.221 0 00-.377.34c-.114.133-.227.246-.32.379-.095.151-.208.284-.284.435a3.332 3.332 0 00-.264.436c-.075.17-.15.321-.207.492-.056.151-.113.321-.17.492-.037.151-.075.303-.094.454 0 .019-.019.038-.019.057-.037.17-.037.397-.056.51-.02.133-.038.247-.038.38 0 .075 0 .17.019.245.019.133.038.247.075.36.038.114.076.227.132.34v.02c.057.113.132.227.208.34.075.114.15.227.245.341.094.095.207.208.32.303.113.113.227.208.358.303.453.397.566.53 1.15.832.095.057.189.095.302.152.019 0 .038.019.057.019 0 .038 0 .057.018.094.02.152.057.303.095.455.037.17.094.321.15.454.057.113.095.227.151.34.02.038.038.076.057.095.075.152.15.284.226.417l.283.397c.094.114.207.246.32.36.114.113.227.208.359.321 0 0 .019.02.037.02.113.094.227.189.34.264.132.095.264.17.414.246.132.076.283.152.434.209.113.056.245.094.377.132.019.02.038.02.076.038.075.019.17.038.245.057-.057 1.022-.076 1.987.075 2.328.17.378 1-.776 1.829-2.101-.113 1.306-.189 2.839 0 3.293.207.473 1.338-1.003 2.319-2.63 13.366-3.105 25.563 6.17 26.845 19.267-.245-2.045-2.752-3.18-3.902-2.896-.566 1.4-1.527 3.198-3.073 4.315.132-1.25.075-2.536-.189-3.785a12.26 12.26 0 01-2.337 4.77c-1.791.132-3.582-.739-4.525-2.045-.075-.057-.094-.17-.15-.246a3.398 3.398 0 01-.152-.397 1.581 1.581 0 01-.113-.398c-.019-.132-.019-.265-.019-.416v-.284a3.19 3.19 0 01.095-.398c.037-.132.075-.265.132-.397.075-.133.132-.265.226-.397.32-.909.32-1.647-.264-2.082a2.147 2.147 0 00-.358-.19c-.076-.019-.17-.056-.245-.075-.057-.02-.095-.038-.151-.057-.132-.038-.264-.076-.396-.095a1.432 1.432 0 00-.396-.057 3.06 3.06 0 00-.415-.037c-.094 0-.188.018-.282.018-.151 0-.283.02-.415.057-.132.02-.264.038-.396.076a3.222 3.222 0 00-.396.132c-.132.057-.245.114-.377.17-.113.058-.226.133-.358.19-4.393 2.877-1.772 9.615 1.225 11.564-1.13.208-2.28.454-2.601.7l-.038.038c.81.492 1.659.909 2.545 1.268a60.88 60.88 0 003.054.909v.019c1.565.322 3.148.435 4.75.34 8.352-.586 15.196-6.964 16.44-15.368.038.17.076.322.113.492.057.34.132.7.17 1.06v.02c.038.17.056.34.075.491v.076c.02.17.038.34.038.492.019.208.038.416.038.625v.302c0 .095.019.209.019.303 0 .114-.02.227-.02.34v.266c0 .132-.018.246-.018.378 0 .076 0 .152-.02.246 0 .133-.018.266-.018.417-.019.057-.019.113-.019.17-.019.152-.038.284-.056.436 0 .056 0 .113-.02.17-.018.19-.056.36-.075.549v.038c-.037.17-.075.36-.113.53v.056l-.113.511c0 .02-.019.057-.019.076-.038.17-.075.34-.132.511v.057c-.056.19-.113.36-.15.53-.02.019-.02.038-.02.038l-.17.567c-.075.19-.131.36-.206.55-.076.189-.133.378-.208.548-.075.19-.15.36-.226.55h-.019c-.075.17-.15.359-.245.53a.924.924 0 01-.057.132c-.019.019-.019.037-.037.056a17.897 17.897 0 01-5.298 6.36c-.15.094-.301.208-.452.321-.038.038-.095.057-.132.095-.132.095-.264.19-.415.284l.056.113h.02l.791-.113h.02c.49-.076.98-.17 1.47-.265a3.28 3.28 0 00.414-.095c.095-.019.17-.037.264-.056.132-.02.264-.057.396-.076.113-.038.226-.057.34-.095a35.632 35.632 0 005.467-1.817A30.217 30.217 0 0152.16 92a30.903 30.903 0 006.429-1.117 30.143 30.143 0 0017.816-14.29 30.275 30.275 0 01-5.072 12.17 29.713 29.713 0 005.034-4.201 30.046 30.046 0 007.937-16.088c.64 2.99.83 6.076.546 9.123 13.612-19.06 1.132-38.819-4.09-44.023-.02-.038-.038-.057-.038-.095-.02.019-.02.019-.02.038 0-.02 0-.02-.018-.038 0 .227-.019.454-.038.681a25.21 25.21 0 01-.188 1.268c-.094.417-.208.833-.32 1.25a15.76 15.76 0 01-.453 1.21c-.17.38-.358.777-.566 1.155-.207.36-.433.739-.678 1.08-.246.359-.51.7-.773 1.021-.283.34-.585.644-.887.947-.188.17-.358.321-.546.473l-.434.378c-.34.265-.678.511-1.055.738a13.16 13.16 0 01-1.113.644c-.396.19-.792.36-1.188.53-.395.151-.81.284-1.225.397-.415.114-.848.209-1.263.284-.434.076-.867.114-1.282.152-.302.019-.603.038-.905.038-.433 0-.867-.038-1.282-.076a9.505 9.505 0 01-1.282-.19 9.511 9.511 0 01-1.263-.321h-.019c.415-.038.83-.076 1.244-.152.434-.075.849-.17 1.263-.284.415-.113.83-.246 1.226-.397.415-.151.81-.34 1.188-.53.395-.19.754-.398 1.13-.625.359-.246.717-.492 1.056-.757.34-.265.66-.549.962-.851.32-.284.603-.606.886-.928.283-.34.547-.681.792-1.022.037-.057.075-.132.113-.189.188-.303.377-.606.547-.908a13.057 13.057 0 001.018-2.366c.132-.398.226-.814.32-1.23.076-.436.151-.852.189-1.269.037-.435.075-.87.075-1.287 0-.303-.019-.605-.038-.908-.037-.435-.094-.852-.15-1.268a13.91 13.91 0 00-.283-1.268c-.132-.398-.264-.814-.415-1.212-.15-.397-.34-.795-.528-1.173a21.455 21.455 0 00-.64-1.117c-.246-.36-.49-.7-.755-1.04-.283-.322-.565-.644-.867-.966a11.13 11.13 0 00-.49-.473 34.704 34.704 0 00-2.62-1.855 3.505 3.505 0 00-.378-.19c-.622-.397-1.206-.605-1.79-.794z" fill="#B7B7BE"/></svg>
